X:1
T:The Blood Is All My Plea
T:The Blood Is All My Plea
T:John Robson Sweney
T:Louis Eisenbeis, 1876
T:Public Domain Courtesy of the Cyber Hymnal™
T:Public Domain Courtesy of the Cyber Hymnal™
C:John Robson Sweney
Z:Public Domain
Z:Courtesy of the Cyber Hymnal™
%%score ( 1 2 ) ( 3 4 )
L:1/8
Q:1/4=90
M:3/4
K:Eb
V:1 treble 
V:2 treble 
V:3 bass 
V:4 bass 
V:1
 (EF) | [EG]3 [GB] [Ac][GB] | [Ge]4 ([EG][FA]) | [GB]3 E [FA][EG] | [DF]4 ([DB][FA]) | %5
w: 1.~To *|Je- sus’ blood I|owe My *|soul’s su- prem- est|good; It *|
w: 2.~I *|wan- dered far from|God, The *|road was rough and|wild; I *|
w: 3.~I *|looked, and lo! I|saw The *|blood be- sprin- kled|door, ’Twas *|
w: 4.~How *|hap- py now my|lot, I’ve *|found my long sought|rest; The *|
 [EG]3 [FA] [GB][EG] | [Ee]>[Ec] [EB]2 (EG) | (c B2) [EG] [DF]>[B,E] | [B,E]4 ||"^Refrain" [EB]2 | %10
w: brought re- demp- tion|down to me, It *|led * me up to|God.||
w: called, and Je- sus|an- swering said: “Come *|un- * to Me, My|child.”||
w: o- pen, and I|hast- ened in, To *|wan- * der forth no|more.|The|
w: blood, the blood my|on- ly plea, Makes *|me * se- rene- ly|blest.||
 [Ec]3 [EA] [EA][Ec] | [EB]4 [GB]2 | [Ge]3 [Af] [Ge][EG] | [DF]4 (GF) | E3 [EF] [EG][EB] | %15
w: |||||
w: |||||
w: blood is all my|plea, The|blood is all my|need; The *|blood of Je- sus|
w: |||||
 [Ge]>[Af] [Ge]2 (EG) | (c B2) [EG] [DF]>[B,E] | [B,E]4 |] %18
w: |||
w: |||
w: cleans- eth me, His *|blood * is life in-|deed.|
w: |||
V:2
 x2 | x6 | x6 | x3 E x2 | x6 | x6 | x4 E2 | E3 x3 | x4 || x2 | x6 | x6 | x6 | x4 D2 | E3 x3 | %15
 x4 E2 | E3 x3 | x4 |] %18
V:3
 (G,A,) | [E,B,]3 [E,E] [E,E][E,E] | [E,B,]4 [E,B,]2 | [E,B,]3 [E,G,] [D,B,][E,B,] | %4
 [B,,B,]4 [B,,B,]2 | [E,B,]3 [E,B,] [E,E][E,B,] | [A,C]>A, [E,G,]2 (G,B,) | %7
 (A, G,2) [B,,B,] [B,,A,]>[E,G,] | [E,G,]4 || [E,G,]2 | A,3 [A,C] [A,C]A, | [E,G,]4 [E,B,]2 | %12
 [E,B,]3 [E,B,] [E,B,][E,B,] | [B,,B,]4 (B,A,) | [E,G,]3 [E,A,] [E,B,][E,G,] | %15
 [E,B,]>[E,B,] [E,B,]2 ([E,G,]B,) | (A, G,2) [B,,B,] [B,,A,]>[E,G,] | [E,G,]4 |] %18
V:4
 E,2 | x6 | x6 | x6 | x6 | x6 | x3/2 A,/ x3/2 E,2 x/ | E,3 x3 | x4 || x2 | A,3 A, x2 | x6 | x6 | %13
 x4 B,,2 | x6 | x6 | E,3 x3 | x4 |] %18

